src/svg/uf0f6-file-text-o.svg

<!-- Generated by IcoMoon.io -->
<svg version="1.1" xmlns="http://www.w3.org/2000/svg" width="27" height="32" viewBox="0 0 27 32">
<path d="M26.214 6.786c0.661 0.661 1.214 1.982 1.214 2.929v20.571c0 0.946-0.768 1.714-1.714 1.714h-24c-0.946 0-1.714-0.768-1.714-1.714v-28.571c0-0.946 0.768-1.714 1.714-1.714h16c0.946 0 2.268 0.554 2.929 1.214zM18.286 2.429v6.714h6.714c-0.107-0.304-0.268-0.607-0.393-0.732l-5.589-5.589c-0.125-0.125-0.429-0.286-0.732-0.393zM25.143 29.714v-18.286h-7.429c-0.946 0-1.714-0.768-1.714-1.714v-7.429h-13.714v27.429h22.857zM6.857 14.286c0-0.321 0.25-0.571 0.571-0.571h12.571c0.321 0 0.571 0.25 0.571 0.571v1.143c0 0.321-0.25 0.571-0.571 0.571h-12.571c-0.321 0-0.571-0.25-0.571-0.571v-1.143zM20 18.286c0.321 0 0.571 0.25 0.571 0.571v1.143c0 0.321-0.25 0.571-0.571 0.571h-12.571c-0.321 0-0.571-0.25-0.571-0.571v-1.143c0-0.321 0.25-0.571 0.571-0.571h12.571zM20 22.857c0.321 0 0.571 0.25 0.571 0.571v1.143c0 0.321-0.25 0.571-0.571 0.571h-12.571c-0.321 0-0.571-0.25-0.571-0.571v-1.143c0-0.321 0.25-0.571 0.571-0.571h12.571z"></path>
</svg>

<svg xmlns="http://www.w3.org/2000/svg" width="27" height="32"><path d="M26.214 6.786c.661.661 1.214 1.982 1.214 2.929v20.571c0 .946-.768 1.714-1.714 1.714h-24A1.715 1.715 0 0 1 0 30.286V1.715C0 .769.768.001 1.714.001h16c.946 0 2.268.554 2.929 1.214zm-7.928-4.357v6.714H25c-.107-.304-.268-.607-.393-.732l-5.589-5.589c-.125-.125-.429-.286-.732-.393zm6.857 27.285V11.428h-7.429A1.715 1.715 0 0 1 16 9.714V2.285H2.286v27.429h22.857zM6.857 14.286c0-.321.25-.571.571-.571h12.571c.321 0 .571.25.571.571v1.143c0 .321-.25.571-.571.571H7.428a.564.564 0 0 1-.571-.571v-1.143zm13.143 4c.321 0 .571.25.571.571V20c0 .321-.25.571-.571.571H7.429A.564.564 0 0 1 6.858 20v-1.143c0-.321.25-.571.571-.571H20zm0 4.571c.321 0 .571.25.571.571v1.143c0 .321-.25.571-.571.571H7.429a.564.564 0 0 1-.571-.571v-1.143c0-.321.25-.571.571-.571H20z"/></svg>
